images/app-icons/cartridges-symbolic.svg

<svg width="16" height="16" viewBox="0 0 16 16" fill="none" xmlns="http://www.w3.org/2000/svg">
<path fill-rule="evenodd" clip-rule="evenodd" d="M3 3C1.89543 3 1 3.89543 1 5V11C1 12.1046 1.89543 13 3 13H13C14.1046 13 15 12.1046 15 11V5C15 3.89543 14.1046 3 13 3H3ZM6 5C5.44772 5 5 5.44772 5 6V10C5 10.5523 5.44772 11 6 11H10C10.5523 11 11 10.5523 11 10V6C11 5.44772 10.5523 5 10 5H6ZM12 8C12 7.44772 12.4477 7 13 7C13.5523 7 14 7.44772 14 8C14 8.55228 13.5523 9 13 9C12.4477 9 12 8.55228 12 8ZM3 7C2.44772 7 2 7.44772 2 8C2 8.55228 2.44772 9 3 9C3.55228 9 4 8.55228 4 8C4 7.44772 3.55228 7 3 7Z" fill="black"/>
</svg>

<svg xmlns="http://www.w3.org/2000/svg" width="16" height="16" fill="none"><path fill="#000" fill-rule="evenodd" d="M3 3a2 2 0 0 0-2 2v6a2 2 0 0 0 2 2h10a2 2 0 0 0 2-2V5a2 2 0 0 0-2-2zm3 2a1 1 0 0 0-1 1v4a1 1 0 0 0 1 1h4a1 1 0 0 0 1-1V6a1 1 0 0 0-1-1zm6 3a1 1 0 1 1 2 0 1 1 0 0 1-2 0M3 7a1 1 0 1 0 0 2 1 1 0 0 0 0-2" clip-rule="evenodd"/></svg>
